; HEADER_BLOCK_START
; generated by OrcaSlicer 2.1.0 on 2024-10-29 at 20:43:26
; total layer number: 59
; filament_density: 1.27
; filament_diameter: 1.75
; max_z_height: 9.40
; HEADER_BLOCK_END

; THUMBNAIL_BLOCK_START

;
; THUMBNAIL_BLOCK_END

; THUMBNAIL_BLOCK_START

;
; THUMBNAIL_BLOCK_END

; external perimeters extrusion width = 0.42mm
; perimeters extrusion width = 0.45mm
; infill extrusion width = 0.45mm
; solid infill extrusion width = 0.42mm
; top infill extrusion width = 0.42mm
; support material extrusion width = 0.42mm
; first layer extrusion width = 0.50mm

; external perimeters extrusion width = 0.42mm
; perimeters extrusion width = 0.45mm
; infill extrusion width = 0.45mm
; solid infill extrusion width = 0.42mm
; top infill extrusion width = 0.42mm
; support material extrusion width = 0.42mm
; first layer extrusion width = 0.50mm

; EXECUTABLE_BLOCK_START
EXCLUDE_OBJECT_DEFINE NAME=lineSens_mount.stl_id_0_copy_0 CENTER=110,122 POLYGON=[[82.2636,122],[82.3018,121.274],[82.416,120.557],[82.6049,119.855],[82.8664,119.178],[83.1977,118.531],[83.595,117.923],[84.054,117.36],[84.5696,116.848],[85.1362,116.393],[85.7473,116],[121.597,116],[134.447,116.1],[135.059,116.522],[135.621,117.008],[136.128,117.551],[136.574,118.145],[136.954,118.784],[137.263,119.459],[137.499,120.164],[137.657,120.89],[137.736,121.629],[137.736,122.371],[137.657,123.11],[137.499,123.836],[137.263,124.541],[136.954,125.216],[136.574,125.855],[136.128,126.449],[135.621,126.992],[135.059,127.478],[134.447,127.9],[121.597,128],[98.5973,128],[85.7473,128],[85.1362,127.607],[84.5696,127.152],[84.054,126.64],[83.595,126.077],[83.1977,125.469],[82.8664,124.822],[82.6049,124.145],[82.416,123.443],[82.3018,122.726],[82.2636,122]]
EXCLUDE_OBJECT_DEFINE NAME=lineSens_mount.stl_id_1_copy_0 CENTER=110,98 POLYGON=[[82.2636,98],[82.3018,97.2745],[82.416,96.557],[82.6049,95.8554],[82.8664,95.1776],[83.1977,94.531],[83.595,93.9227],[84.054,93.3596],[84.5696,92.8477],[85.1362,92.3929],[85.7473,92],[121.597,92],[134.447,92.1],[135.059,92.5224],[135.621,93.0079],[136.128,93.5509],[136.574,94.145],[136.954,94.7835],[137.263,95.4591],[137.499,96.1639],[137.657,96.8898],[137.736,97.6285],[137.736,98.3715],[137.657,99.1102],[137.499,99.8361],[137.263,100.541],[136.954,101.216],[136.574,101.855],[136.128,102.449],[135.621,102.992],[135.059,103.478],[134.447,103.9],[121.597,104],[98.5973,104],[85.7473,104],[85.1362,103.607],[84.5696,103.152],[84.054,102.64],[83.595,102.077],[83.1977,101.469],[82.8664,100.822],[82.6049,100.145],[82.416,99.443],[82.3018,98.7255],[82.2636,98]]
M73 P0 R24
M106 S0
M106 P2 S0
;TYPE:Custom
M140 S0
M104 S0 
START_PRINT EXTRUDER_TEMP=255 BED_TEMP=80
G90
G21
M83 ; use relative distances for extrusion
; filament start gcode
M106 S0
M106 P2 S0
;LAYER_CHANGE
;Z:0.2
;HEIGHT:0.2
;BEFORE_LAYER_CHANGE
;0.2
G92 E0

G1 E-.6 F2400
;_SET_FAN_SPEED_CHANGING_LAYER
SET_VELOCITY_LIMIT ACCEL=500 ACCEL_TO_DECEL=250
SET_VELOCITY_LIMIT SQUARE_CORNER_VELOCITY=9
EXCLUDE_OBJECT_START NAME=lineSens_mount.stl_id_0_copy_0
G1 Z.2 F30000
G1 X97.303 Y115.791
G1 Z.2
G1 E.6 F2400
;TYPE:Support
;WIDTH:0.5
G1 F3600
G1 X97.123 Y115.824 E.00661
G1 X96.435 Y116.029 E.02593
G1 X95.738 Y116.33 E.0274
G1 X95.116 Y116.689 E.02593
G1 X94.523 Y117.129 E.02666
G1 X93.972 Y117.65 E.0274
G1 X93.51 Y118.2 E.02593
G1 X93.103 Y118.816 E.02666
G1 X92.763 Y119.494 E.0274
G1 X92.511 Y120.189 E.02666
G1 X92.346 Y120.887 E.02593
G1 X92.257 Y121.641 E.0274
G1 X92.259 Y122.379 E.02666
G1 X92.342 Y123.093 E.02593
G1 X92.517 Y123.831 E.0274
G1 X92.771 Y124.524 E.02666
G1 X93.093 Y125.166 E.02593
G1 X93.51 Y125.8 E.0274
G1 X93.985 Y126.365 E.02666
G1 X94.508 Y126.858 E.02593
G1 X95.116 Y127.311 E.0274
G1 X95.757 Y127.679 E.02666
G1 X96.416 Y127.964 E.02593
G1 X97.123 Y128.176 E.02666
G1 X97.303 Y128.209 E.00661
G1 X96.691 Y129.75 E.05985
G1 X85.233 Y129.75 E.41369
G1 X84.112 Y129.029 E.04811
G1 X83.402 Y128.459 E.03288
G1 X82.756 Y127.818 E.03289
G1 X82.18 Y127.112 E.03288
G1 X81.682 Y126.349 E.03289
G1 X81.267 Y125.538 E.03288
G1 X80.939 Y124.689 E.03289
G1 X80.702 Y123.809 E.03289
G1 X80.559 Y122.91 E.03289
G1 X80.511 Y122 E.03289
G1 X80.559 Y121.091 E.03289
G1 X80.702 Y120.191 E.03288
G1 X81.109 Y118.682 E.05643
G1 X81.301 Y118.395 E.01247
G1 X81.682 Y117.651 E.03018
G1 X81.848 Y117.398 E.01094
G1 X82.18 Y116.889 E.02195
G1 X82.756 Y116.183 E.03289
G1 X83.402 Y115.541 E.03289
G1 X84.112 Y114.971 E.03288
G1 X85.233 Y114.25 E.04812
G1 X96.691 Y114.25 E.41369
G1 X97.278 Y115.727 E.05738
;WIPE_START
G1 X96.691 Y114.25 E-.47674
G1 X96.28 Y114.25 E-.12326
;WIPE_END
G1 Z.4 F30000
G1 X96.747 Y128.493 Z.4
G1 Z.2
G1 E.6 F2400
G1 F3600
G1 X96.412 Y129.339 E.03284
G1 X85.354 Y129.339 E.39924
G1 X84.353 Y128.695 E.04297
G1 X83.677 Y128.152 E.03132
G1 X83.061 Y127.541 E.03132
G1 X82.513 Y126.868 E.03132
G1 X82.038 Y126.142 E.03132
G1 X81.643 Y125.37 E.03132
G1 X81.331 Y124.561 E.03132
G1 X81.105 Y123.723 E.03132
G1 X80.969 Y122.866 E.03132
G1 X80.923 Y122 E.03132
G1 X80.969 Y121.134 E.03132
G1 X81.105 Y120.277 E.03132
G1 X81.488 Y118.855 E.05319
G1 X81.656 Y118.604 E.01089
G1 X82.038 Y117.858 E.03027
G1 X82.513 Y117.132 E.03133
G1 X83.061 Y116.459 E.03132
G1 X83.677 Y115.848 E.03132
G1 X84.353 Y115.305 E.03132
G1 X85.354 Y114.661 E.04297
G1 X96.412 Y114.661 E.39924
G1 X96.747 Y115.507 E.03284
G1 X96.264 Y115.654 E.01825
G1 X95.543 Y115.968 E.02839
G1 X94.9 Y116.339 E.02679
G1 X94.268 Y116.806 E.02839
G1 X93.664 Y117.376 E.02999
G1 X93.187 Y117.945 E.02679
G1 X92.753 Y118.6 E.02839
G1 X92.398 Y119.302 E.02839
G1 X92.114 Y120.082 E.02999
G1 X91.943 Y120.804 E.02679
G1 X91.849 Y121.585 E.02839
G1 X91.846 Y122.371 E.02839
G1 X91.943 Y123.196 E.02999
G1 X92.126 Y123.96 E.02839
G1 X92.398 Y124.698 E.02839
G1 X92.731 Y125.361 E.02679
G1 X93.187 Y126.055 E.02999
G1 X93.694 Y126.656 E.02839
G1 X94.268 Y127.194 E.02839
G1 X94.863 Y127.637 E.02679
G1 X95.583 Y128.052 E.02999
G1 X96.264 Y128.346 E.02679
G1 X96.747 Y128.493 E.01825
G1 X95.324 Y128.492 F30000
G1 F3600
G1 X95.233 Y128.831 E.01266
G1 X85.503 Y128.831 E.35129
G1 X84.65 Y128.282 E.03662
G1 X84.015 Y127.773 E.02939
G1 X83.438 Y127.199 E.02939
G1 X82.923 Y126.568 E.02939
G1 X82.478 Y125.887 E.02939
G1 X82.107 Y125.162 E.02939
G1 X82.039 Y124.987 E.0068
G1 X81.814 Y124.403 E.02259
G1 X81.602 Y123.617 E.02939
G1 X81.474 Y122.813 E.02939
G1 X81.432 Y122 E.02939
G1 X81.474 Y121.187 E.02939
G1 X81.602 Y120.383 E.02939
G1 X81.957 Y119.068 E.04919
G1 X82.095 Y118.862 E.00893
G1 X82.478 Y118.113 E.03038
G1 X82.923 Y117.432 E.02939
G1 X83.438 Y116.801 E.02939
G1 X84.015 Y116.227 E.02939
G1 X84.65 Y115.718 E.02939
G1 X85.503 Y115.169 E.03662
G1 X95.233 Y115.169 E.35129
G1 X95.324 Y115.508 E.01266
G1 X94.572 Y115.947 E.03143
G1 X93.953 Y116.408 E.02786
G1 X93.335 Y116.985 E.03052
G1 X92.789 Y117.63 E.03052
G1 X92.283 Y118.397 E.03319
G1 X91.937 Y119.087 E.02786
G1 X91.644 Y119.88 E.03052
G1 X91.445 Y120.701 E.03052
G1 X91.343 Y121.541 E.03052
G1 X91.338 Y122.386 E.03052
G1 X91.432 Y123.226 E.03052
G1 X91.623 Y124.05 E.03053
G1 X91.937 Y124.913 E.03318
G1 X92.32 Y125.667 E.03052
G1 X92.789 Y126.37 E.03052
G1 X93.335 Y127.015 E.03052
G1 X93.896 Y127.545 E.02786
G1 X94.572 Y128.053 E.03052
G1 X95.324 Y128.492 E.03143
G1 X93.981 Y128.323 F30000
G1 F3600
G1 X85.653 Y128.323 E.30071
G1 X84.947 Y127.87 E.03027
G1 X84.354 Y127.393 E.02746
G1 X83.815 Y126.858 E.02746
G1 X83.334 Y126.268 E.02746
G1 X82.918 Y125.631 E.02746
G1 X82.571 Y124.955 E.02746
G1 X82.298 Y124.245 E.02746
G1 X82.1 Y123.511 E.02746
G1 X81.98 Y122.76 E.02746
G1 X81.94 Y122 E.02746
G1 X81.98 Y121.241 E.02746
G1 X82.088 Y120.565 E.0247
G1 X82.425 Y119.281 E.04793
G1 X82.533 Y119.12 E.00698
G1 X82.918 Y118.369 E.0305
G1 X83.334 Y117.732 E.02746
G1 X83.814 Y117.142 E.02746
G1 X84.354 Y116.607 E.02746
G1 X84.947 Y116.13 E.02746
G1 X85.652 Y115.677 E.03027
G1 X93.981 Y115.677 E.30071
G1 X92.905 Y116.701 E.05363
G1 X92.328 Y117.397 E.03265
G1 X91.836 Y118.156 E.03266
G1 X91.436 Y118.967 E.03265
G1 X91.132 Y119.819 E.03265
G1 X90.929 Y120.7 E.03266
G1 X90.83 Y121.599 E.03266
G1 X90.836 Y122.504 E.03265
G1 X90.947 Y123.401 E.03265
G1 X91.162 Y124.28 E.03266
G1 X91.477 Y125.128 E.03265
G1 X91.888 Y125.933 E.03265
G1 X92.39 Y126.686 E.03266
G1 X92.976 Y127.375 E.03265
G1 X93.981 Y128.323 E.0499
G1 X92.675 Y127.815 F30000
G1 F3600
G1 X85.802 Y127.815 E.24816
G1 X85.244 Y127.457 E.02392
G1 X84.693 Y127.014 E.02553
G1 X84.191 Y126.516 E.02553
G1 X83.745 Y125.968 E.02553
G1 X83.358 Y125.376 E.02553
G1 X82.987 Y124.621 E.03038
G1 X82.781 Y124.087 E.02066
G1 X82.597 Y123.404 E.02553
G1 X82.486 Y122.706 E.02553
G1 X82.449 Y122 E.02553
G1 X82.486 Y121.294 E.02553
G1 X82.597 Y120.596 E.02553
G1 X82.894 Y119.494 E.04119
G1 X82.971 Y119.379 E.00503
G1 X83.358 Y118.624 E.03061
G1 X83.745 Y118.032 E.02553
G1 X84.191 Y117.484 E.02553
G1 X84.693 Y116.986 E.02553
G1 X85.244 Y116.543 E.02552
G1 X85.802 Y116.185 E.02392
G1 X92.675 Y116.185 E.24816
G1 X91.912 Y117.106 E.04317
G1 X91.455 Y117.8 E.03
G1 X91.016 Y118.657 E.03478
G1 X90.679 Y119.56 E.03479
G1 X90.45 Y120.496 E.03479
G1 X90.323 Y121.585 E.03958
G1 X90.33 Y122.548 E.03479
G1 X90.45 Y123.504 E.03478
G1 X90.641 Y124.313 E.03001
G1 X90.964 Y125.22 E.03478
G1 X91.389 Y126.085 E.03478
G1 X91.912 Y126.894 E.03479
G1 X92.675 Y127.815 E.04317
G1 X91.576 Y127.307 F30000
G1 F3600
G1 X85.951 Y127.307 E.2031
G1 X85.541 Y127.044 E.01757
G1 X85.032 Y126.635 E.0236
G1 X84.568 Y126.174 E.0236
G1 X84.155 Y125.668 E.0236
G1 X83.798 Y125.121 E.0236
G1 X83.5 Y124.539 E.0236
G1 X83.264 Y123.929 E.0236
G1 X83.094 Y123.298 E.0236
G1 X82.992 Y122.653 E.0236
G1 X82.957 Y122 E.0236
G1 X82.992 Y121.347 E.0236
G1 X83.094 Y120.702 E.0236
G1 X83.362 Y119.707 E.03718
G1 X83.798 Y118.879 E.03378
G1 X84.155 Y118.332 E.0236
G1 X84.568 Y117.826 E.0236
G1 X85.032 Y117.365 E.0236
G1 X85.541 Y116.956 E.02359
G1 X85.951 Y116.693 E.01757
G1 X91.576 Y116.693 E.2031
G1 X90.942 Y117.674 E.04218
G1 X90.556 Y118.443 E.03105
G1 X90.197 Y119.4 E.03692
G1 X89.952 Y120.393 E.03693
G1 X89.815 Y121.57 E.04277
G1 X89.815 Y122.43 E.03106
G1 X89.924 Y123.447 E.03692
G1 X90.197 Y124.6 E.04279
G1 X90.556 Y125.557 E.03691
G1 X90.942 Y126.326 E.03105
G1 X91.576 Y127.307 E.04218
G1 X90.611 Y126.799 F30000
G1 F3600
G1 X86.1 Y126.799 E.16288
G1 X85.839 Y126.631 E.01122
G1 X85.371 Y126.256 E.02166
G1 X84.945 Y125.833 E.02167
G1 X84.566 Y125.368 E.02167
G1 X84.237 Y124.865 E.02167
G1 X83.964 Y124.331 E.02166
G1 X83.748 Y123.771 E.02167
G1 X83.592 Y123.192 E.02167
G1 X83.498 Y122.599 E.02167
G1 X83.466 Y122 E.02167
G1 X83.498 Y121.401 E.02167
G1 X83.592 Y120.808 E.02167
G1 X83.831 Y119.921 E.03318
G1 X84.237 Y119.135 E.03195
G1 X84.566 Y118.632 E.02166
G1 X84.945 Y118.167 E.02167
G1 X85.371 Y117.744 E.02167
G1 X85.839 Y117.369 E.02166
G1 X86.1 Y117.201 E.01122
G1 X90.611 Y117.201 E.16288
G1 X90.095 Y118.228 E.04151
G1 X89.715 Y119.24 E.03905
G1 X89.455 Y120.291 E.03906
G1 X89.307 Y121.555 E.04597
G1 X89.307 Y122.445 E.03213
G1 X89.421 Y123.52 E.03905
G1 X89.66 Y124.576 E.03907
G1 X90.019 Y125.596 E.03904
G1 X90.611 Y126.799 E.04843
G1 X89.766 Y126.291 F30000
G1 F3600
G1 X86.249 Y126.291 E.12699
G1 X85.71 Y125.876 E.02458
G1 X85.322 Y125.491 E.01974
G1 X84.976 Y125.068 E.01974
G1 X84.677 Y124.61 E.01974
G1 X84.428 Y124.124 E.01973
G1 X84.231 Y123.614 E.01974
G1 X84.089 Y123.086 E.01974
G1 X84.003 Y122.546 E.01973
G1 X83.975 Y122 E.01974
G1 X84.003 Y121.454 E.01974
G1 X84.089 Y120.914 E.01974
G1 X84.303 Y120.121 E.02965
G1 X84.677 Y119.39 E.02967
G1 X84.976 Y118.932 E.01973
G1 X85.322 Y118.509 E.01974
G1 X85.71 Y118.124 E.01974
G1 X86.249 Y117.709 E.02458
G1 X89.766 Y117.709 E.12699
G1 X89.547 Y118.217 E.01999
G1 X89.233 Y119.081 E.03319
G1 X88.957 Y120.188 E.0412
G1 X88.812 Y121.319 E.04119
G1 X88.799 Y122.46 E.04118
G1 X88.919 Y123.594 E.04118
G1 X89.169 Y124.707 E.0412
G1 X89.547 Y125.783 E.04117
G1 X89.766 Y126.291 E.01998
G1 X89.007 Y125.784 F30000
G1 F3600
G1 X86.405 Y125.784 E.09393
G1 X86.048 Y125.497 E.01652
G1 X85.698 Y125.15 E.0178
G1 X85.387 Y124.767 E.0178
G1 X85.117 Y124.355 E.01781
G1 X84.892 Y123.916 E.0178
G1 X84.715 Y123.456 E.01781
G1 X84.587 Y122.979 E.01781
G1 X84.509 Y122.492 E.0178
G1 X84.483 Y122 E.0178
G1 X84.509 Y121.508 E.01781
G1 X84.587 Y121.021 E.0178
G1 X84.779 Y120.305 E.02674
G1 X85.117 Y119.645 E.02677
G1 X85.387 Y119.233 E.0178
G1 X85.698 Y118.85 E.0178
G1 X86.048 Y118.503 E.01781
G1 X86.405 Y118.216 E.01652
G1 X89.007 Y118.216 E.09393
G1 X88.678 Y119.161 E.03612
G1 X88.459 Y120.085 E.03427
G1 X88.306 Y121.275 E.04332
G1 X88.291 Y121.526 E.00907
G1 X88.291 Y122.475 E.03426
G1 X88.416 Y123.668 E.04331
G1 X88.678 Y124.839 E.04334
G1 X89.007 Y125.784 E.03611
G1 X88.279 Y125.276 F30000
G1 F3600
G1 X86.584 Y125.276 E.06121
G1 X86.387 Y125.118 E.00911
G1 X86.075 Y124.808 E.01587
G1 X85.797 Y124.467 E.01587
G1 X85.557 Y124.099 E.01588
G1 X85.356 Y123.708 E.01587
G1 X85.198 Y123.298 E.01587
G1 X85.084 Y122.873 E.01588
G1 X85.015 Y122.439 E.01587
G1 X84.992 Y122 E.01587
G1 X85.015 Y121.561 E.01588
G1 X85.084 Y121.127 E.01587
G1 X85.256 Y120.489 E.02384
G1 X85.557 Y119.901 E.02387
G1 X85.797 Y119.533 E.01587
G1 X86.075 Y119.192 E.01587
G1 X86.387 Y118.882 E.01588
G1 X86.584 Y118.724 E.0091
G1 X88.279 Y118.724 E.06121
G1 X88.188 Y119.03 E.01152
G1 X87.962 Y119.982 E.03534
G1 X87.913 Y120.259 E.01013
G1 X87.799 Y121.231 E.03533
G1 X87.783 Y121.511 E.01013
G1 X87.783 Y122.489 E.03533
G1 X87.8 Y122.77 E.01014
G1 X87.913 Y123.741 E.03532
G1 X87.962 Y124.018 E.01013
G1 X88.188 Y124.97 E.03536
G1 X88.279 Y125.276 E.01151
G1 X87.618 Y124.768 F30000
G1 F3600
G1 X86.755 Y124.768 E.03113
G1 X86.452 Y124.467 E.01544
G1 X86.208 Y124.167 E.01394
G1 X85.997 Y123.844 E.01394
G1 X85.821 Y123.5 E.01394
G1 X85.682 Y123.14 E.01394
G1 X85.581 Y122.767 E.01394
G1 X85.521 Y122.386 E.01394
G1 X85.5 Y122 E.01394
G1 X85.521 Y121.614 E.01394
G1 X85.581 Y121.233 E.01394
G1 X85.732 Y120.673 E.02094
G1 X85.997 Y120.156 E.02097
G1 X86.208 Y119.833 E.01394
G1 X86.452 Y119.534 E.01394
G1 X86.755 Y119.232 E.01545
G1 X87.618 Y119.232 E.03113
G1 X87.464 Y119.88 E.02403
G1 X87.41 Y120.185 E.0112
G1 X87.293 Y121.186 E.0364
G1 X87.275 Y121.496 E.0112
G1 X87.275 Y122.504 E.03639
G1 X87.293 Y122.814 E.0112
G1 X87.41 Y123.815 E.03639
G1 X87.464 Y124.12 E.0112
G1 X87.618 Y124.768 E.02403
G1 X86.877 Y123.623 F30000
G1 F3600
G1 X86.511 Y123.734 E.01379
G1 X86.285 Y123.292 E.01792
G1 X86.165 Y122.982 E.01201
G1 X86.079 Y122.661 E.01201
G1 X86.026 Y122.332 E.01201
G1 X86.009 Y122 E.01201
G1 X86.026 Y121.668 E.01201
G1 X86.079 Y121.339 E.01201
G1 X86.208 Y120.857 E.01804
G1 X86.511 Y120.266 E.02397
G1 X86.877 Y120.377 E.01379
G1 X86.787 Y121.142 E.02782
G1 X86.767 Y121.481 E.01227
G1 X86.767 Y122.519 E.03746
G1 X86.787 Y122.858 E.01227
G1 X86.877 Y123.623 E.02781
;WIPE_START
G1 X86.787 Y122.858 E-.23108
G1 X86.767 Y122.519 E-.10194
G1 X86.767 Y121.629 E-.26698
;WIPE_END
G1 Z.4 F30000
G1 X135.542 Y114.729 Z.4
G1 Z.2
G1 E.6 F2400
G1 F3600
G1 X136.086 Y114.942 E.02109
G1 X138.073 Y117.07 E.10513
G1 X138.189 Y117.436 E.01387
G1 X138.506 Y117.969 E.0224
G1 X138.894 Y118.816 E.03362
G1 X139.188 Y119.699 E.03361
G1 X139.56 Y121.405 E.06302
G1 X139.446 Y123.528 E.07679
G1 X138.745 Y125.628 E.07992
G1 X138.03 Y126.83 E.05051
G1 X137.471 Y127.575 E.03362
G1 X136.836 Y128.255 E.03361
G1 X136.131 Y128.864 E.03361
G1 X134.993 Y129.65 E.04993
G1 X123.594 Y129.65 E.41157
G1 X123.054 Y128.181 E.05652
G1 X123.779 Y127.964 E.02732
G1 X124.438 Y127.679 E.02593
G1 X125.078 Y127.311 E.02666
G1 X125.687 Y126.858 E.0274
G1 X126.209 Y126.365 E.02593
G1 X126.685 Y125.8 E.02666
G1 X127.102 Y125.166 E.0274
M73 P1 R24
G1 X127.424 Y124.524 E.02593
G1 X127.678 Y123.831 E.02666
G1 X127.853 Y123.093 E.0274
G1 X127.936 Y122.379 E.02593
G1 X127.937 Y121.641 E.02666
G1 X127.853 Y120.907 E.02666
G1 X127.678 Y120.169 E.0274
G1 X127.424 Y119.476 E.02666
G1 X127.102 Y118.834 E.02593
G1 X126.685 Y118.2 E.0274
G1 X126.209 Y117.635 E.02666
G1 X125.687 Y117.142 E.02593
G1 X125.078 Y116.689 E.0274
G1 X124.438 Y116.321 E.02666
G1 X123.779 Y116.036 E.02593
